X:1
T:Ack, Saliga Stunder, 11.11.11.12.11
T:Ack, Saliga Stunder, 11.11.11.12.11
T:Oskar Ahnfelt, 1851 
T:Public Domain Courtesy of the Cyber Hymnal™
C:Oskar Ahnfelt, 1851
Z:Public Domain
Z:Courtesy of the Cyber Hymnal™
%%score ( 1 2 ) ( 3 4 )
L:1/8
Q:1/4=108
M:4/4
K:C
V:1 treble 
V:2 treble 
V:3 bass 
V:4 bass 
V:1
 G | G2 CE G2 [Ec][Ec] | [FB]2 [FA][FB] [Ec]3 [EG] | [Ec]2 [EB][FA] G2 [FA][EG] | %4
 [DG]2 [DF][CE] [B,D]3 [DG] | [CG]2 [C^F][CA] [CA]2 [B,G][DB] | [DB]2 [CA][C^F] [B,G]3 [=FG] x | %7
 [EG]2 [CE][DF] [EG]2 [FA][FA] | ([FA][EG])[DF][CE] [CE]2 [B,D][B,G] x/ | %9
 [Cc]2 [FB][Fd] [Ee]2 [Ec][Ec] x/ | [Ed]2 (B/A/)[FB] [Ec]6 |] %11
V:2
 G | G2 CE G2 x2 | x8 | x8 | x8 | x8 | x9 | x8 | x17/2 | x17/2 | x2 E x7 |] %11
V:3
 G, | G,2 C,E, G,2 [C,G,][C,G,] | [D,G,]2 [G,,G,][G,,G,] [C,G,]3 [C,C] | %3
 [A,C]2 [G,C][F,C] [E,C]2 [F,C][C,C] | [B,,G,]2 [B,,G,][C,G,] [G,,G,]3 [B,,G,] | %5
 [D,A,]2 [D,A,][D,^F,] [G,,G,]2 [G,,G,][G,,G,] | [D,^F,]2 [D,F,][D,A,] (z [D,B,]) x3 | %7
 [C,C]2 [C,G,][C,G,] [C,C]2 [F,C][F,C] | ([D,D][E,A,])[F,A,][^F,A,] G,2 G, z/ x | %9
 [E,G,]2 [D,G,][B,,G,] [C,G,]2 [A,,A,] z/ x | [F,A,]2 G,G, [C,G,]6 |] %11
V:4
 G, | G,2 C,E, G,2 x2 | x8 | x8 | x8 | x8 | x4 (G,3 =F,E,) | x8 | x7 G,=F,/ | x7 (A,G,/) | %10
 x2 G,G, x6 |] %11

